symbols/web/vertical_align_top/materialsymbolsoutlined/vertical_align_top_grad200_24px.svg

<svg xmlns="http://www.w3.org/2000/svg" height="24" width="24"><path d="M3.525 2.5H20.475V5.15H3.525ZM12.025 7.15 17.525 12.65 15.675 14.5 13.325 12.15V21.5H10.675V12.15L8.325 14.5L6.475 12.7Z"/></svg>

<svg xmlns="http://www.w3.org/2000/svg" height="24" width="24"><path d="M10.675 21.5v-9.35l-2.35 2.35-1.85-1.8 5.55-5.55 5.5 5.5-1.85 1.85-2.35-2.35v9.35ZM3.525 5.15V2.5h16.95v2.65Z"/></svg>
